dist/img/stack/stack-12.svg

<svg width="110" height="110" viewBox="0 0 110 110" fill="none" xmlns="http://www.w3.org/2000/svg">
<path d="M21.0308 22.3152C21.0308 21.9076 21.3699 21.5 21.8446 21.5H27.8128C28.2198 21.5 28.6267 21.8397 28.6267 22.3152V88.6848C28.6267 89.0924 28.2876 89.5 27.8128 89.5H21.8446C21.4377 89.5 21.0308 89.1603 21.0308 88.6848V22.3152ZM36.087 22.3152C36.087 21.9076 36.4261 21.5 36.9008 21.5H42.8691C43.276 21.5 43.6829 21.8397 43.6829 22.3152V88.6848C43.6829 89.0924 43.3438 89.5 42.8691 89.5H36.9008C36.4939 89.5 36.087 89.1603 36.087 88.6848V22.3152ZM51.1432 22.3152C51.1432 21.9076 51.4823 21.5 51.9571 21.5H57.9253C58.3322 21.5 58.7392 21.8397 58.7392 22.3152V88.6848C58.7392 89.0924 58.4001 89.5 57.9253 89.5H51.9571C51.5502 89.5 51.1432 89.1603 51.1432 88.6848V22.3152ZM66.1995 22.3152C66.1995 21.9076 66.5386 21.5 67.0133 21.5H72.9816C73.3885 21.5 73.7954 21.8397 73.7954 22.3152V88.6848C73.7954 89.0924 73.4563 89.5 72.9816 89.5H67.0133C66.6064 89.5 66.1995 89.1603 66.1995 88.6848V22.3152ZM81.3235 48.7408C81.3235 48.3332 81.6626 47.9256 82.1374 47.9256H88.1056C88.5125 47.9256 88.9195 48.2652 88.9195 48.7408V62.2592C88.9195 62.6668 88.5804 63.0744 88.1056 63.0744H82.1374C81.7304 63.0744 81.3235 62.7348 81.3235 62.2592V48.7408Z" fill="#B7B7BE"/>
</svg>

<svg width="110" height="110" viewBox="0 0 110 110" fill="none" xmlns="http://www.w3.org/2000/svg"><path d="M21.03 22.315c0-.407.34-.815.815-.815h5.968c.407 0 .814.34.814.815v66.37c0 .407-.34.815-.814.815h-5.968a.825.825 0 01-.814-.815v-66.37zm15.057 0c0-.407.34-.815.814-.815h5.968c.407 0 .814.34.814.815v66.37c0 .407-.34.815-.814.815h-5.968a.825.825 0 01-.814-.815v-66.37zm15.056 0c0-.407.34-.815.814-.815h5.968c.407 0 .814.34.814.815v66.37a.826.826 0 01-.814.815h-5.968a.825.825 0 01-.814-.815v-66.37zm15.056 0c0-.407.34-.815.814-.815h5.969c.406 0 .813.34.813.815v66.37c0 .407-.339.815-.813.815h-5.969a.825.825 0 01-.814-.815v-66.37zm15.124 26.426c0-.408.34-.815.814-.815h5.969c.407 0 .814.34.814.815v13.518c0 .408-.34.815-.814.815h-5.969a.825.825 0 01-.814-.815V48.741z" fill="#B7B7BE"/></svg>
